X:1
T:Title
%%score { 1 | 2 }
L:1/8
M:9/8
K:Bb
V:1 treble nm="Grand Piano"
V:2 bass 
V:1
 z3 z3[Q:1/4=100] [Fd][Ec][DB] | [DF]3 [B,D]3 [CE][DF][EG] | [DF]3 [DB]3 [FA][Ac][Ac] | %3
 [Ac]3 [FA]2 [FA] [Ac][GB][=EG] | F6 [Fd][Ec][DB] | [DF]3 [B,D]2 [B,D] [CE][DF][EG] | %6
 [DF]3 [DB]3 [Fd][Fd][Fd] | [Fd]3 [FB]2 [Fd] [Ec][DB][Ec] | [DB]6 Bdf | f3 d2 [FB] [Gc][GB][EG] | %10
 [EG]3 [DF]3 [DF][DB][Ec] | [Fd]3 [Ec]2 [DB] [Dd][Fc][GB] | [Ac]6 [Fd][Ec][DB] | %13
 [DF]3 [B,D]2 [B,D] [CE][DF][EG] | [DF]3 [DB]3 [DB][Fd][Fd] | [Fd]3 [FB]2 [FB] [Ec][DB][Ec] | %16
 [Fd]3- [Fd]2 [FB] [Ec][DB][CA] |[M:3/4] [DB]6 |] %18
V:2
 z3 z3 B,,B,,B,, | B,,3 B,,3 B,,B,,B,, | B,3 B,3 F,F,F, | F,3 F,2 F, C,C,C, | F,6 B,B,B, | %5
 B,,3 B,,2 B,, B,,B,,B,, | B,,3 B,,3 B,B,B, | B,3 D,2 B,, F,F,F, | B,,6[K:treble] [B,D][B,F][B,D] | %9
 [B,D]3 [F,F]2[K:bass] D, E,E,E, | B,,3 B,,3 B,,B,,B,, | B,,3 F,2 F, B,A,G, | F,6 B,B,B, | %13
 B,,3 B,,2 B,, B,,B,,B,, | B,3 B,3 B,B,B, | B,,3 D,2 D, F,F,F, | B,,3- B,,2 D, F,F,F, | %17
[M:3/4] B,,6 |] %18

